X:1
T:Onward, Christian Soldiers
T:Text: Sabine Baring-Gould, 1865, alt. Tune: Arthur S. Sullivan, 1871
T:65 65 D with refrain ST. GERTRUDE www.hymnary.org/text/onward_christian_soldiers_marching_as
T:Onward, Christian Soldiers
T:This hymn is in the public domain. You may freely use this score for personal and congregational worship. If you reproduce the score, please credit Hymnary.org as the source. 
T:This hymn is in the public domain. You may freely use this score for personal and congregational worship. If you reproduce the score, please credit Hymnary.org as the source. 
T:This hymn is in the public domain. You may freely use this score for personal and congregational worship. If you reproduce the score, please credit Hymnary.org as the source. 
Z:This hymn is in the public domain. You may freely use this score for personal and congregational worship. If you reproduce the score, please credit Hymnary.org as the source.
%%score ( 1 2 ) ( 3 4 )
L:1/8
M:4/4
K:Eb
V:1 treble nm="SOPRANO ALTO" snm="S. A."
V:2 treble 
V:3 bass nm="TENOR BASS" snm="T. B."
V:4 bass 
V:1
"^1""^2""^3""^4" B2 B2 B2 B2 | (B3 c) B4 | F2 F2 E2 F2 | G8 | E2 G2 B2 e2 | e4 d4 | c2 c2 G2 =A2 | %7
w: On- ward, Chris- tian|sol- * diers,|march- ing as to|war,|with the cross of|Je- sus|go- ing on be-|
w: Like a might- y|ar- * my|moves the church of|God;|let us bold- ly|fol- low|where the saints have|
w: Crowns and thrones may|per- * ish,|king- doms rise and|wane,|but the church of|Je- sus|con- stant will re-|
w: On- ward, then, O|peo- * ple,|join our hap- py|throng:|blend with ours your|voic- es|in the tri- umph|
 B8 | F2 F2 B2 F2 | (G3 A) G4 | B2 B2 e2 B2 | c8 |1 c2 B2 A2 B2 | (c2 B2) (A2 B2) | c2 B2 A2 G2 | %15
w: fore.|Christ, the roy- al|mas- * ter,|leads a- gainst the|foe;|for- ward in- to|bat- * tle *|see his ban- ners|
w: trod.|We are not di-|vid- * ed;|all one bod- y|we—|one in hope and|doc- * trine, *|one in char- i-|
w: main;|gates of hell can|nev- * er|'gainst that church pre-|vail.|We have Christ's own|prom- * ise, *|and that can- not|
w: song.|Glo- ry, laud, and|hon- * or|un- to Christ the|King,|we through count- less|a- * ges *|with the an- gels|
 F8 ||"^Page 2""^Refrain" E2 E2 E2 E2 | (E2 DC) (D2 E2) | %18
w: go!|On- ward, Chris- tian|sol- * * diers, *|
w: ty.|||
w: fail.|||
w: sing.|||
 F2 F2"^Onward, Christian Soldiers" F2 EF | G8 | B2 B2 e2 d2 | e4 B4 | A2 G2 F3 E | E8 |] %24
w: march- ing as to *|war,|with the cross of|Je- sus|go- ing on be-|fore.|
w: ||||||
w: ||||||
w: ||||||
V:2
 G2 G2 G2 G2 | A4 A4 | D2 D2 C2 D2 | E8 | E2 E2 E2 E2 | F4 F4 | E2 E2 E2 E2 | D8 | D2 D2 F2 D2 | %9
 (E3 F) E4 | E2 E2 E2 E2 | E8 |1 E2 E2 E2 E2 | E4 E4 | E2 E2 F2 E2 | D8 || B,2 B,2 B,2 B,2 | %17
 B,4 B,4 | B,2 B,2 B,2 B,2 | B,8 | G2 G2 A2 A2 | G4 E4 | E2 E2 D3 E | E8 |] %24
V:3
 E,2 G,2 B,2 E2 | E4 D4 | B,2 B,2 B,2 B,2 | B,8 | B,2 B,2 B,2 B,2 | (A,3 C) B,4 | =A,2 A,2 B,2 C2 | %7
 B,8 | B,2 B,2 B,2 B,2 | B,4 B,4 | G,2 G,2 B,2 G,2 | A,8 |1 A,2 G,2 A,2 G,2 | (A,2 G,2) (A,2 G,2) | %14
 A,2 G,2 F,2 F,2 | B,8 || G,2 G,2 G,2 G,2 | A,4 A,4 | A,2 A,2 A,2 A,2 | G,8 | E2 E2 B,2 B,2 | %21
 B,4 B,4 | C3 B, A,3 G, | G,8 |] %24
V:4
 E,2 E,2 E,2 E,2 | F,4 B,,4 | A,2 A,2 G,2 F,2 | E,8 | G,2 G,2 G,2 G,2 | F,4 F,4 | F,2 F,2 F,2 F,2 | %7
 B,,8 | B,,2 B,,2 D,2 B,,2 | E,4 E,4 | E,2 E,2 G,2 E,2 | A,8 |1 A,2 E,2 C,2 E,2 | %13
 (A,2 E,2) (C,2 E,2) | A,,2 A,,2 A,,2 A,,2 | B,,8 || E,2 B,,2 E,2 B,,2 | (F,2 B,,2) (F,2 B,,2) | %18
 D,2 B,,2 D,2 B,,2 | E,8 | E,2 E,2 F,2 F,2 | G,4 G,,4 | A,,2 F,,2 B,,3 E, | E,8 |] %24

